images/Traffic_Sign_GR_-_KOK_2009_-_P-61.svg

<svg width="460" height="655" fill="none" xmlns="http://www.w3.org/2000/svg"><path d="M460 0H0v655h460V0z" fill="#0C479D"/><path d="M356 564.914v-56.375H226.165v-44.415H109.999V418H25v23.086h61.91v46.127h116.169v44.412H332.91V588H435v-23.086h-79M201.412 177.428c18.432 0 33.371-14.872 33.371-33.214S219.844 111 201.412 111c-18.452 0-33.384 14.872-33.384 33.214s14.932 33.214 33.384 33.214zM150.478 300.836c5.546 2.489 12.059.041 14.551-5.481 0 0 30.801-67.962 35.026-77.302 9.573-1.586 64.909-10.762 69.618-11.543 4.299 1.466 42.954 14.621 52.806 17.975 1.338 9.98 5.611 41.892 5.611 41.892.801 5.992 6.341 10.205 12.356 9.401 6.024-.795 10.258-6.301 9.457-12.299l-6.513-48.607c-.549-4.117-3.397-7.565-7.35-8.912l-61.878-21.064a10.969 10.969 0 0 0-5.361-.437l-78.158 12.958a10.991 10.991 0 0 0-8.229 6.298l-37.434 82.638c-2.505 5.512-.043 11.996 5.498 14.483z" fill="#fff"/><path d="m263.468 435.194 40.704 53.47c3.662 4.818 10.572 5.764 15.407 2.116a10.919 10.919 0 0 0 2.13-15.344s-34.483-45.295-38.464-50.534V300.575c0-.145-.06-.277-.06-.418 0-.097.044-.177.036-.267l-4.893-77.775a10.924 10.924 0 0 0-4.713-8.311 11.04 11.04 0 0 0-9.476-1.476l-58.626 17.824a10.991 10.991 0 0 0-6.62 5.555 10.927 10.927 0 0 0-.536 8.59l27.033 75.543-57.159 39.817a10.929 10.929 0 0 0-4.7 8.974v71.291c0 6.05 4.923 10.951 11.005 10.951 6.083 0 11.002-4.901 11.002-10.951v-65.595l75.699-52.727v106.978c0 2.387.782 4.712 2.23 6.616" fill="#fff"/></svg>

<svg width="460" height="655" viewBox="0 0 460 655" fill="none" xmlns="http://www.w3.org/2000/svg">
<path d="M460 0H0V655H460V0Z" fill="#0C479D"/>
<path d="M356 564.914C356 550.316 356 508.539 356 508.539C356 508.539 245.331 508.539 226.165 508.539C226.165 495.891 226.165 464.124 226.165 464.124C226.165 464.124 128.724 464.124 109.999 464.124C109.999 451.147 109.999 418 109.999 418H25V441.086C25 441.086 70.5074 441.086 86.9098 441.086C86.9098 454.063 86.9098 487.213 86.9098 487.213C86.9098 487.213 184.354 487.213 203.079 487.213C203.079 499.858 203.079 531.625 203.079 531.625C203.079 531.625 313.748 531.625 332.91 531.625C332.91 546.227 332.91 588 332.91 588H435V564.914C435 564.914 373.572 564.914 356 564.914" fill="white"/>
<path d="M201.412 177.428C219.844 177.428 234.783 162.556 234.783 144.214C234.783 125.872 219.844 111 201.412 111C182.96 111 168.028 125.872 168.028 144.214C168.028 162.556 182.96 177.428 201.412 177.428Z" fill="white"/>
<path d="M150.478 300.836C156.024 303.325 162.537 300.877 165.029 295.355C165.029 295.355 195.83 227.393 200.055 218.053C209.628 216.467 264.964 207.291 269.673 206.51C273.972 207.976 312.627 221.131 322.479 224.485C323.817 234.465 328.09 266.377 328.09 266.377C328.891 272.369 334.431 276.582 340.446 275.778C346.47 274.983 350.704 269.477 349.903 263.479L343.39 214.872C342.841 210.755 339.993 207.307 336.04 205.96L274.162 184.896C272.44 184.308 270.594 184.157 268.801 184.459L190.643 197.417C187.013 198.015 183.927 200.379 182.414 203.715L144.98 286.353C142.475 291.865 144.937 298.349 150.478 300.836Z" fill="white"/>
<path d="M263.468 435.194L304.172 488.664C307.834 493.482 314.744 494.428 319.579 490.78C322.44 488.625 323.94 485.355 323.94 482.039C323.94 479.742 323.209 477.417 321.709 475.436C321.709 475.436 287.226 430.141 283.245 424.902C283.245 417.965 283.245 300.575 283.245 300.575C283.245 300.43 283.185 300.298 283.185 300.157C283.185 300.06 283.229 299.98 283.221 299.89L278.328 222.115C278.116 218.773 276.385 215.711 273.615 213.804C270.852 211.894 267.345 211.35 264.139 212.328L205.513 230.152C202.633 231.027 200.248 233.031 198.893 235.707C197.552 238.373 197.348 241.48 198.357 244.297L225.39 319.84L168.231 359.657C165.283 361.706 163.531 365.057 163.531 368.631V439.922C163.531 445.972 168.454 450.873 174.536 450.873C180.619 450.873 185.538 445.972 185.538 439.922C185.538 439.922 185.538 383.982 185.538 374.327C192.458 369.506 239.165 336.973 261.237 321.6C261.237 350.977 261.237 428.578 261.237 428.578C261.237 430.965 262.019 433.29 263.467 435.194" fill="white"/>
</svg>
